X:1
T:Title
%%score { 1 | ( 2 3 ) }
L:1/8
Q:1/4=100
M:2/4
K:F
V:1 treble nm="Grand Piano"
V:2 bass 
V:3 bass 
V:1
 F3 F | FF EF | [FA]4 | [EG]2 z2 | [EG]3 [EG] | [EG]G FG | A4- | A2 z2 | c3 A | GF EF | D4 | %11
 B2 z2 | A3 F | AG FE | F4- | F2 z2 |] %16
V:2
 [F,A,C]3 [F,A,C] | [F,A,C][A,C] [G,B,C][F,A,C] | [C,C]4- | [C,C]2 z2 | [C,C]3 [C,C] | %5
 [C,C][B,CE] [A,C][G,CE] | [F,CF]4- | [F,CF]2 z2 | [F,A,F]3 [F,CF] | [A,C][A,C] [G,B,C][F,A,C] | %10
 B,4 | D2 z2 | [C,F,C]3 [C,A,C] | [C,C][C,B,C] [C,A,C][C,G,C] | [F,A,C]4- | [F,A,C]2 z2 |] %16
V:3
 x4 | x4 | x4 | x4 | x4 | x4 | x4 | x4 | x4 | x4 | [B,,F,]4- | [B,,F,]2 z2 | x4 | x4 | x4 | x4 |] %16

